icon-themes/sifr_svg/cmd/sc_dsbrowserexplorer.svg

<svg viewBox="0 0 16 16" xmlns="http://www.w3.org/2000/svg"><path d="m1 1v14h5v-2h-3v-9h12v-3zm11.5625 4-2.28125 2.28125c-.18821.18818-.28125.45346-.28125.71875v1h1c.26531.00004.53057-.09314.71875-.28125l.28125-.28125v2.5625h2v-2.5625l.28125.28125c.18817.18815.45345.28125.71875.28125h1v-1c-.00003-.26531-.09311-.53058-.28125-.71875l-2.28125-2.28125zm-3.5625 5v2.5625l-.28125-.28125c-.18818-.18811-.45344-.28129-.71875-.28125h-1v1c0 .26529.09304.53057.28125.71875l2.28125 2.28125h.875l2.28125-2.28125c.18814-.18817.28122-.45344.28125-.71875v-1h-1c-.2653 0-.53058.0931-.71875.28125l-.28125.28125v-2.5625z" fill="#555753"/></svg>

<svg xmlns="http://www.w3.org/2000/svg" viewBox="0 0 16 16">
  <path
     style="fill:#555753"
     d="M 1 1 L 1 15 L 6 15 L 6 13 L 3 13 L 3 4 L 15 4 L 15 1 L 1 1 z M 12.5625 5 L 10.28125 7.28125 C 10.09304 7.46943 10 7.73471 10 8 L 10 9 L 11 9 C 11.26531 9.00004 11.53057 8.90686 11.71875 8.71875 L 12 8.4375 L 12 11 L 14 11 L 14 8.4375 L 14.28125 8.71875 C 14.46942 8.9069 14.7347 9 15 9 L 16 9 L 16 8 C 15.99997 7.73469 15.90689 7.46942 15.71875 7.28125 L 13.4375 5 L 12.5625 5 z M 9 10 L 9 12.5625 L 8.71875 12.28125 C 8.53057 12.09314 8.26531 11.99996 8 12 L 7 12 L 7 13 C 7 13.26529 7.09304 13.53057 7.28125 13.71875 L 9.5625 16 L 10.4375 16 L 12.71875 13.71875 C 12.90689 13.53058 12.99997 13.26531 13 13 L 13 12 L 12 12 C 11.7347 12 11.46942 12.0931 11.28125 12.28125 L 11 12.5625 L 11 10 L 9 10 z "
     />
</svg>
